!!!!SEGMENT: pl-gd--ee-2628--007-018_stabile-annibale--sacrarum-modulationum-stephanus-plenus-gratia-a-8.krn
!!!cenid: 15xx:1107
!!!COM: Stabile, Annibale
!!!COM-rismID: pe30009662
!!!CDT: ~1535-1595/04
!!!CNT: Italian
!!!GTL: Sacrarum modulationum
!!!OTL: Stephanus plenus gratia a 8
!!!OMV: 018
!!!PDT: 1585
!!!AGN:
!!!SMS-siglum: PL-GD
!!!SMS-shelfmark: Ee 2628
!!!SMS-shelfwork: 007-018 G
!!!SMS-variant:
!!!SMS-altvar:
!!!NIFC-rismSourceID: 1001203361
!!!NIFC-rismChildID: 990060529
!!!NIFC-islandoraID: pl-gd:66139
!!!URL-pdf-islandora: https://repozytorium.nifc.pl/islandora/object/pl-gd%3A66139/datastream/PDF/view
!!!URL-scan: https://polish.musicsources.pl/pl/lokalizacje/galeria/klocki-introligatorskie/673 @EN{Scan on Polish Music Sources Website} @PL{Skany w portalu Dziedzictwo Muzyki Polskiej w otwartym dostępie}
!!!ONB-nifc: UWAGA: Cantus: s. 102-113, Tenore: s. 258-269, Basso: s. 414-425, Quinto: s. 736-747, Sextus: s. 624-632. Dla głosu Alto proszę skorzystać z https://pbc.gda.pl/dlibra/publication/87583/edition/79412/content, s. 25-48. Uwaga: utwory podzielone wg spisu treści dostępnych na końcu ksiąg – proszę sprawdzać sąsiednie tytuły i zwracać uwagę na liczbę głosów. Głosy Quinto i Sextus proszę umieszczać wg ambitusu (może się różnić w zależności od utworu).
!!!AIN: 2 alto 2 bass 2 soprn 2 tenor
!!!key: g
**kern	**text	**kern	**text	**kern	**text	**kern	**text	**kern	**text	**kern	**text	**kern	**text	**kern	**text
*part8	*part8	*part7	*part7	*part6	*part6	*part5	*part5	*part4	*part4	*part3	*part3	*part2	*part2	*part1	*part1
*staff8	*staff8	*staff7	*staff7	*staff6	*staff6	*staff5	*staff5	*staff4	*staff4	*staff3	*staff3	*staff2	*staff2	*staff1	*staff1
*I"BASSVS 2.	*	*I"BASSVS	*	*I"TENOR 2.	*	*I"TENOR	*	*I"ALTVS 2.	*	*I"ALTVS	*	*I"CANTVS 2.	*	*I"CANTVS	*
*I'Coro B 2	*	*I'Coro B 1	*	*I'Coro T 2	*	*I'Coro T 1	*	*I'Coro A 2	*	*I'Coro A 1	*	*I'Coro S 2	*	*I'Coro S 1	*
*ICvox	*	*ICvox	*	*ICvox	*	*ICvox	*	*ICvox	*	*ICvox	*	*ICvox	*	*ICvox	*
*Ibass	*	*Ibass	*	*Itenor	*	*Itenor	*	*Ialto	*Ialto	*Ialto	*	*Isoprn	*	*Isoprn	*
*clefC4	*	*clefC4	*	*clefC3	*	*clefC3	*	*clefC2	*	*clefC2	*	*clefG2	*	*clefG2	*
*k[b-]	*	*k[b-]	*	*k[b-]	*	*k[b-]	*	*k[b-]	*	*k[b-]	*	*k[b-]	*	*k[b-]	*
*g:	*	*g:	*	*g:	*	*g:	*	*g:	*	*g:	*	*g:	*	*g:	*
*M2/1	*	*M2/1	*	*M2/1	*	*M2/1	*	*M2/1	*	*M2/1	*	*M2/1	*	*M2/1	*
*met(C|)	*	*met(C|)	*	*met(C|)	*	*met(C|)	*	*met(C|)	*	*met(C|)	*	*met(C|)	*	*met(C|)	*
=1-	=1-	=1-	=1-	=1-	=1-	=1-	=1-	=1-	=1-	=1-	=1-	=1-	=1-	=1-	=1-
!LO:TX:a:t=Secundus Chorus. Octo vocum.	!	!LO:TX:a:t=Primus Chorus. Octo vocum.	!	!LO:TX:a:t=Secundus Chorus. Octo Vocum.	!	!LO:TX:a:t=Primus Chorus. Octo vocum.	!	!LO:TX:a:t=Secundus Chorus. Octo Vocum.	!	!LO:TX:a:t=Primus Chorus. Octo Vocum.	!	!LO:TX:a:t=Secundus Chorus. Octo Vocum.	!	!LO:TX:a:t=Primus Chorus. Octo vocum.	!
!	!	!	!	!	!	!	!	!LO:TX:t=P:problem:podwójnie zapisany znak przykluczowy: B- b-	!	!LO:TX:t=P:problem:podwójnie zapisany znak przykluczowy: B- b-	!	!	!	!	!
!	!	!	!	!	!	!	!	!	!	!	!	!	!	!LO:N:acc=#	!
00r	.	1.G	STe-	00r	.	1.d	STe-	00r	.	1.g	STe-	00r	.	1.bn	STe-
.	.	2G/	-pha-	.	.	2d\	-pha-	.	.	2g\	-pha-	.	.	2b/	-pha-
=2-	=2-	=2-	=2-	=2-	=2-	=2-	=2-	=2-	=2-	=2-	=2-	=2-	=2-	=2-	=2-
.	.	1G	-nus	.	.	1d	-nus	.	.	1g	-nus	.	.	1bny	-nus
.	.	1F	ple-	.	.	1f	ple-	.	.	1a	ple-	.	.	1.cc	ple-
=3-	=3-	=3-	=3-	=3-	=3-	=3-	=3-	=3-	=3-	=3-	=3-	=3-	=3-	=3-	=3-
0r	.	1E	-nus	0r	.	1g	-nus	0r	.	1g	-nus	0r	.	.	.
.	.	.	.	.	.	.	.	.	.	.	.	.	.	2cc\	-nus
.	.	2.D/	gra-	.	.	2.f\	gra-	.	.	2b-\	gra-	.	.	1.dd	gra-
.	.	.	.	.	.	.	.	.	.	4a\	.	.	.	.	.
.	.	4E/	.	.	.	4e\	.	.	.	4g\	.	.	.	.	.
=4-	=4-	=4-	=4-	=4-	=4-	=4-	=4-	=4-	=4-	=4-	=4-	=4-	=4-	=4-	=4-
1r	.	2F#X/	.	1r	.	2d\	.	1r	.	2a\	.	1r	.	.	.
.	.	2G/	-ti-	.	.	2B-/	-ti-	.	.	2d/	-ti-	.	.	2g/	-ti-
1.d	STe-	0D	-a	1.f#X	STe-	0A	-a	1.a	STe-	0d	-a	1.dd	STe-	0a	-a
=5-	=5-	=5-	=5-	=5-	=5-	=5-	=5-	=5-	=5-	=5-	=5-	=5-	=5-	=5-	=5-
2d\	-pha-	.	.	2fny\	-pha-	.	.	2a\	-pha-	.	.	2dd\	-pha-	.	.
1d	-nus	1r	.	2f\	-nus	1r	.	1a	-nus	1r	.	2dd\	-nus	1r	.
.	.	.	.	1a\	ple-	.	.	.	.	.	.	1ff\	ple-	.	.
=6-	=6-	=6-	=6-	=6-	=6-	=6-	=6-	=6-	=6-	=6-	=6-	=6-	=6-	=6-	=6-
1c	ple-	0r	.	.	.	0r	.	2cc\	ple-	00r	.	.	.	00r	.
.	.	.	.	4g\	.	.	.	2c/	-nus	.	.	2ee\	-nus	.	.
.	.	.	.	4f\	.	.	.	.	.	.	.	.	.	.	.
*	*	*	*	*	*	*	*	*	*	*	*	*lig	*	*	*
*	*	*	*	*	*	*	*	*	*	*	*	*col	*	*	*
1B-	-nus	.	.	2g\	.	.	.	4d/	gra-	.	.	1dd	gra-	.	.
.	.	.	.	.	.	.	.	4e/	.	.	.	.	.	.	.
.	.	.	.	2d\	-nus	.	.	4f\	.	.	.	.	.	.	.
.	.	.	.	.	.	.	.	4g\	.	.	.	.	.	.	.
=7-	=7-	=7-	=7-	=7-	=7-	=7-	=7-	=7-	=7-	=7-	=7-	=7-	=7-	=7-	=7-
2.A/	gra-	00r	.	1.e	gra-	00r	.	1.a	.	.	.	2.cc\	-gra-	.	.
*	*	*	*	*	*	*	*	*	*	*	*	*Xlig	*	*	*
*	*	*	*	*	*	*	*	*	*	*	*	*Xcol	*	*	*
!LO:N:acc=#	!	!	!	!	!	!	!	!	!	!	!	!	!	!	!
4Bn\	.	.	.	.	.	.	.	.	.	.	.	4dd\	.	.	.
!	!	!	!	!	!	!	!	!	!	!	!	!LO:N:acc=#	!	!	!
2c#X\	.	.	.	.	.	.	.	.	.	.	.	2een\	.	.	.
2d\	-ti-	.	.	2f\	-ti-	.	.	2a\	-ti-	.	.	2dd\	-ti-	.	.
=8-	=8-	=8-	=8-	=8-	=8-	=8-	=8-	=8-	=8-	=8-	=8-	=8-	=8-	=8-	=8-
2A/	-a	.	.	2e\	-a	.	.	2a\	-a	00r	.	1cc#X	-a	00r	.
2A/	et	.	.	2e\	et	.	.	2a\	et	.	.	.	.	.	.
2B-y\	for-	.	.	2d\	for-	.	.	2g\	for-	.	.	1r	.	.	.
2cny\	-ti-	.	.	2e\	-ti-	.	.	2a\	-ti-	.	.	.	.	.	.
*	*	*	*	*custos:f	*	*	*	*	*	*	*	*	*	*	*
!	!	!	!	!LO:LB:g=original	!	!	!	!	!	!	!	!	!	!	!
=9-	=9-	=9-	=9-	=9-	=9-	=9-	=9-	=9-	=9-	=9-	=9-	=9-	=9-	=9-	=9-
2.d\	-tu-	00r	.	1.f	-tu-	00r	.	2b-\	-tu-	.	.	2r	.	.	.
.	.	.	.	.	.	.	.	2a\	-di-	.	.	1dd	et	.	.
4c\	.	.	.	.	.	.	.	.	.	.	.	.	.	.	.
*custos:B	*	*	*	*	*	*	*	*custos:g	*	*	*	*	*	*	*
!LO:LB:g=original	!	!	!	!	!	!	!	!LO:LB:g=original	!	!	!	!	!	!	!
!LO:N:acc=#	!	!	!	!	!	!	!	!	!	!	!	!	!	!	!
2Bn\	.	.	.	.	.	.	.	2g\	-ne	.	.	.	.	.	.
2c\	.	.	.	2.e\	.	.	.	2g\	et	.	.	1ccny\	for-	.	.
=10-	=10-	=10-	=10-	=10-	=10-	=10-	=10-	=10-	=10-	=10-	=10-	=10-	=10-	=10-	=10-
*lig	*	*	*	*	*	*	*	*	*	*	*	*	*	*	*
*col	*	*	*	*	*	*	*	*	*	*	*	*	*	*	*
1G	.	.	.	.	.	.	.	2g\	for-	0r	.	.	.	0r	.
.	.	.	.	4d\	.	.	.	.	.	.	.	.	.	.	.
.	.	.	.	1d	.	.	.	2f\	-ti-	.	.	2b-/	-ti-	.	.
*	*	*	*	*	*	*	*	*	*	*	*	*custos:a	*	*	*
!	!	!	!	!	!	!	!	!	!	!	!	!LO:LB:g=original	!	!	!
2.A\	.	.	.	.	.	.	.	2.e/	-tu-	.	.	2a/	-tu-	.	.
.	.	.	.	2c#X/	-di-	.	.	.	.	.	.	2a/	-di-	.	.
*Xlig	*	*	*	*	*	*	*	*	*	*	*	*	*	*	*
*Xcol	*	*	*	*	*	*	*	*	*	*	*	*	*	*	*
4A/	-di-	.	.	.	.	.	.	4e/	-di-	.	.	.	.	.	.
=11-	=11-	=11-	=11-	=11-	=11-	=11-	=11-	=11-	=11-	=11-	=11-	=11-	=11-	=11-	=11-
1D	-ne	2r	.	1d	-ne	2r	.	1f#X	-ne	2r	.	1a	-ne	2r	.
.	.	2.d\	fa-	.	.	2.f#X\	fa-	.	.	2.a\	fa-	.	.	2.dd\	fa-
1r	.	.	.	1r	.	.	.	1r	.	.	.	1r	.	.	.
!	!	!LO:N:acc=#	!	!	!	!	!	!	!	!	!	!	!	!	!
.	.	4Bn\	-ci-	.	.	4g\	-ci-	.	.	4d/	-ci-	.	.	4dd\	-ci-
.	.	2c\	-e-	.	.	2e\	-e-	.	.	2g\	-e-	.	.	2cc\	-e-
*	*	*custos:d	*	*	*	*custos:d	*	*	*	*custos:f	*	*	*	*	*
!	!	!LO:LB:g=original	!	!	!	!LO:LB:g=original	!	!	!	!LO:LB:g=original	!	!	!	!	!
=12-	=12-	=12-	=12-	=12-	=12-	=12-	=12-	=12-	=12-	=12-	=12-	=12-	=12-	=12-	=12-
0r	.	2d\	-bat	0r	.	2d\	-bat	0r	.	2f\	-bat	0r	.	2a/	-bat
.	.	2B-y\	pro-	.	.	2fny\	pro-	.	.	2b-\	pro-	.	.	1dd	pre-
*	*	*	*	*	*	*lig	*	*	*	*	*	*	*	*	*
*	*	*	*	*	*	*col	*	*	*	*	*	*	*	*	*
.	.	4c\	-di-	.	.	1e	-di-	.	.	2g\	-di-	.	.	.	.
.	.	4B-\	.	.	.	.	.	.	.	.	.	.	.	.	.
.	.	4A/	.	.	.	.	.	.	.	1a\	.	.	.	1cc\	-di-
.	.	4G/	.	.	.	.	.	.	.	.	.	.	.	.	.
=13-	=13-	=13-	=13-	=13-	=13-	=13-	=13-	=13-	=13-	=13-	=13-	=13-	=13-	=13-	=13-
1r	.	2Fny/	.	1r	.	2.d\	.	1r	.	.	.	1r	.	.	.
.	.	2G/	-gi-	.	.	.	.	.	.	2g\	-gi-	.	.	2b-y/	-gi-
*	*	*	*	*	*	*Xlig	*	*	*	*	*	*	*	*	*
*	*	*	*	*	*	*Xcol	*	*	*	*	*	*	*	*custos:a	*
.	.	.	.	.	.	4d\	-gi-	.	.	.	.	.	.	.	.
!	!	!	!	!	!	!	!	!	!	!	!	!	!	!LO:LB:g=original	!
2r	.	1D	-a	2r	.	1d	-a	2r	.	1f#X	-a	2r	.	1a	-a
2.d\	fa-	.	.	2.f#X\	fa-	.	.	2.a\	fa-	.	.	2.dd\	fa-	.	.
*	*	*	*	*	*	*	*	*	*	*	*	*	*	*	*
=14-	=14-	=14-	=14-	=14-	=14-	=14-	=14-	=14-	=14-	=14-	=14-	=14-	=14-	=14-	=14-
.	.	00r	.	.	.	00r	.	.	.	00r	.	.	.	00r	.
!LO:N:acc=#	!	!	!	!	!	!	!	!	!	!	!	!	!	!	!
4Bn\	-ci-	.	.	4g\	ci-	.	.	4d/	-ci-	.	.	4dd\	ci-	.	.
2c\	-e-	.	.	2e\	-e-	.	.	2g\	-e-	.	.	2cc\	-e-	.	.
2d\	-bat	.	.	2d\	-bat	.	.	2fny\	-bat	.	.	2a/	-bat	.	.
2B-yX\	pro-	.	.	2fny\	pro-	.	.	2b-\	pro-	.	.	1dd\	pro-	.	.
=15-	=15-	=15-	=15-	=15-	=15-	=15-	=15-	=15-	=15-	=15-	=15-	=15-	=15-	=15-	=15-
*	*	*	*	*lig	*	*	*	*	*	*	*	*	*	*	*
*	*	*	*	*col	*	*	*	*	*	*	*	*	*	*	*
4c\	-di-	.	.	1e	-di-	.	.	2g\	-di-	.	.	.	.	.	.
4B-\	.	.	.	.	.	.	.	.	.	.	.	.	.	.	.
4A/	.	.	.	.	.	.	.	1a	.	.	.	1cc	-di-	.	.
4G/	.	.	.	.	.	.	.	.	.	.	.	.	.	.	.
2F/	.	.	.	2.d\	.	.	.	.	.	.	.	.	.	.	.
2G/	-gi-	.	.	.	.	.	.	2g\	-gi-	.	.	2b-/	-gi-	.	.
*	*	*	*	*Xlig	*	*	*	*	*	*	*	*	*	*	*
*	*	*	*	*Xcol	*	*	*	*	*	*	*	*	*	*	*
.	.	.	.	4d\	-gi-	.	.	.	.	.	.	.	.	.	.
*custos:D	*	*	*	*	*	*	*	*	*	*	*	*	*	*	*
!LO:LB:g=original	!	!	!	!	!	!	!	!	!	!	!	!	!	!	!
=16-	=16-	=16-	=16-	=16-	=16-	=16-	=16-	=16-	=16-	=16-	=16-	=16-	=16-	=16-	=16-
*M3/1	*	*M3/1	*	*M3/1	*	*M3/1	*	*M3/1	*	*M3/1	*	*M3/1	*	*M3/1	*
*met(O|3/2)	*	*met(O|3/2)	*	*met(O|3/2)	*	*met(O|3/2)	*	*met(O|3/2)	*	*met(O|3/2)	*	*met(O|3/2)	*	*met(O|3/2)	*
!	!	!LO:N:vis=00	!	!	!	!	!	!	!	!	!	!	!	!	!
0D	-a	1%3r	.	0d	-a	1d	et	0f#X	-a	1a	et	0a	-a	1dd	et
.	.	.	.	.	.	1d	ſig-	.	.	1f#X	ſig-	.	.	1dd	ſig-
1r	.	.	.	1r	.	1c	-na	1r	.	1g	-na	1r	.	1ee	-na
=17-	=17-	=17-	=17-	=17-	=17-	=17-	=17-	=17-	=17-	=17-	=17-	=17-	=17-	=17-	=17-
!LO:N:vis=00	!	!	!	!LO:N:vis=00	!	!	!	!LO:N:vis=00	!	!	!	!LO:N:vis=00	!	!	!
1%3r	.	1%3ryy	.	1%3r	.	0d	mag-	1%3r	.	1b-	mag-	1%3r	.	1.ff	mag-
.	.	.	.	.	.	.	.	.	.	1a	-na	.	.	.	.
.	.	.	.	.	.	.	.	.	.	.	.	.	.	2ff\	-na
.	.	.	.	.	.	1c	-na	.	.	1cc	in	.	.	1ee	in
=18-	=18-	=18-	=18-	=18-	=18-	=18-	=18-	=18-	=18-	=18-	=18-	=18-	=18-	=18-	=18-
1%3ryy	.	1G	et	1%3ryy	.	1d	in	1%3ryy	.	0b-	po-	1%3ryy	.	0dd	po-
.	.	1G	ſig-	.	.	1.e#X	po-	.	.	.	.	.	.	.	.
.	.	1A	-na	.	.	.	.	.	.	1a	-pu-	.	.	1cc#X	-pu-
.	.	.	.	.	.	2eny\	-pu-	.	.	.	.	.	.	.	.
*	*	*	*	*	*	*	*	*	*	*custos:g	*	*	*	*	*
!	!	!	!	!	!	!	!	!	!	!LO:LB:g=original	!	!	!	!	!
=19-	=19-	=19-	=19-	=19-	=19-	=19-	=19-	=19-	=19-	=19-	=19-	=19-	=19-	=19-	=19-
!LO:N:vis=00	!	!	!	!	!	!	!	!LO:N:vis=0	!	!	!	!LO:N:vis=00	!	!LO:N:vis=00	!
1%3r	.	1.B-	mag-	1%3ryy	.	0d	-lo	1%3r	.	1.fny	-lo	1%3r	.	1%5dd	-lo
*	*	*	*	*	*	*	*	*	*	*	*	*	*	*	*
.	.	2B-\	-na	.	.	.	.	.	.	2g\	.	.	.	.	.
.	.	1A	in	.	.	1r	.	.	.	1a	.	.	.	.	.
*	*	*	*	*	*	*custos:d	*ij	*	*	*	*	*	*	*	*
!	!	!	!	!	!	!LO:LB:g=original	!	!	!	!	!	!	!	!	!
=20-	=20-	=20-	=20-	=20-	=20-	=20-	=20-	=20-	=20-	=20-	=20-	=20-	=20-	=20-	=20-
1%3ryy	.	0G	po-	1%3ryy	.	1d	et	1g	et	1b-	et	1%3ryy	.	.	.
.	.	.	.	.	.	1d	ſig-	1g	ſig-	1b-	ſig-	.	.	.	.
!	!	!	!	!	!	!	!	!	!	!	!	!	!	!LO:TX:t=P:problem: Verovio nie wyświetla pauzy	!
.	.	1F#X	-pu-	.	.	1d	-na	1a	-na	1a	-na	.	.	1r	.
*	*	*custos:G	*	*	*	*	*	*	*	*	*	*	*	*	*
!	!	!LO:LB:g=original	!	!	!	!	!	!	!	!	!	!	!	!	!
=21-	=21-	=21-	=21-	=21-	=21-	=21-	=21-	=21-	=21-	=21-	=21-	=21-	=21-	=21-	=21-
!	!	!	!	!	!	!	!	!LO:N:acc=#	!	!	!	!	!	!	!
1G	et	0G	-lo	1g	et	0d	mag-	0bn	mag-	1.g	mag-	1dd	et	1gg	et
1G	ſig-	.	.	1g	ſig-	.	.	.	.	.	.	1dd	ſig-	1gg	ſig-
.	.	.	.	.	.	.	.	.	.	2f\	.	.	.	.	.
1C	-na	1r	.	1g	-na	1c	-na	1cc	-na	2e/	.	1ee	-na	1gg	-na
.	.	.	.	.	.	.	.	.	.	2d/	.	.	.	.	.
*	*	*	*	*	*	*	*	*	*	*	*	*custos:ff	*	*	*
!	!	!	!	!	!	!	!	!	!	!	!	!LO:LB:g=original	!	!	!
=22-	=22-	=22-	=22-	=22-	=22-	=22-	=22-	=22-	=22-	=22-	=22-	=22-	=22-	=22-	=22-
0F	mag-	0Fny	ma-	0g	mag-	1A	in	0cc	mag-	1c	.	1.ff	mag-	1ff	mag-
.	.	.	.	.	.	1.c	po-	.	.	1f	-na	.	.	1ccny	-na
.	.	.	.	.	.	.	.	.	.	.	.	2ff\	-na	.	.
1C	-na	1c	-gna	1g	-na	.	.	1cc	-na	0g	in	1ee	in	1r	.
.	.	.	.	.	.	2c/	-pu-	.	.	.	.	.	.	.	.
*	*	*	*	*	*	*	*	*	*	*	*	*	*	*custos:dd	*
!	!	!	!	!	!	!	!	!	!	!	!	!	!	!LO:LB:g=original	!
=23-	=23-	=23-	=23-	=23-	=23-	=23-	=23-	=23-	=23-	=23-	=23-	=23-	=23-	=23-	=23-
1G	in	1G	in	1g	in	0d	-lo	1b-y	in	.	.	0dd	po-	1dd	in
1D	po-	1d	po-	1f	po-	.	.	1.a	po-	1a	po-	.	.	1dd	po-
1A	-pu-	1A	-pu-	1e	-pu-	1r	.	.	.	1a	-pu-	1cc#X	-pu-	1ee	-pu-
.	.	.	.	.	.	.	.	2a\	-pu-	.	.	.	.	.	.
=24-	=24-	=24-	=24-	=24-	=24-	=24-	=24-	=24-	=24-	=24-	=24-	=24-	=24-	=24-	=24-
*M2/1	*	*M2/1	*	*M2/1	*	*M2/1	*Xij	*M2/1	*	*M2/1	*	*M2/1	*	*M2/1	*
*met(C|)	*	*met(C|)	*	*met(C|)	*	*met(C|)	*	*met(C|)	*	*met(C|)	*	*met(C|)	*	*met(C|)	*
1D	-lo	0d	-lo	1d	-lo	00r	.	1f#X	-lo	0a	-lo	1dd	-lo	0ff#X	-lo
2r	.	.	.	2r	.	.	.	2r	.	.	.	2r	.	.	.
1d\	La-	.	.	1f#X\	La-	.	.	1a\	La-	.	.	1dd\	La-	.	.
=25-	=25-	=25-	=25-	=25-	=25-	=25-	=25-	=25-	=25-	=25-	=25-	=25-	=25-	=25-	=25-
.	.	0r	.	.	.	.	.	.	.	0r	.	.	.	0r	.
2A/	-pi-	.	.	2a\	-pi-	.	.	2cc\	-pi-	.	.	2ff\	-pi-	.	.
2c\	-des	.	.	2g\	-des	.	.	2cc\	-des	.	.	2ee\	-des	.	.
2d\	tor-	.	.	2fny\	tor-	.	.	2a\	tor-	.	.	2ff\	tor-	.	.
=26-	=26-	=26-	=26-	=26-	=26-	=26-	=26-	=26-	=26-	=26-	=26-	=26-	=26-	=26-	=26-
1B-	-ren-	1r	.	1f	-ren-	1r	.	1b-	-ren-	1r	.	1dd	-ren-	1r	.
1F	-tis	2r	.	1f	-tis	2r	.	1a	-tis	2r	.	1ccny	-tis	2r	.
.	.	1F/	il-	.	.	1A/	il-	.	.	1f\	il-	.	.	1cc\	il-
=27-	=27-	=27-	=27-	=27-	=27-	=27-	=27-	=27-	=27-	=27-	=27-	=27-	=27-	=27-	=27-
00r	.	.	.	00r	.	.	.	00r	.	.	.	00r	.	.	.
.	.	2F/	-li	.	.	2A/	-li	.	.	2f\	-li	.	.	2cc\	-li
.	.	0E-X	dul-	.	.	0B-	dul-	.	.	0g	dul-	.	.	0ee-X	dul-
=28-	=28-	=28-	=28-	=28-	=28-	=28-	=28-	=28-	=28-	=28-	=28-	=28-	=28-	=28-	=28-
.	.	.	.	.	.	.	.	.	.	.	.	.	.	.	.
.	.	1C	-ces	.	.	1.c	-ces	.	.	1.g	-ces	.	.	1ee-yX	-ces
=29-	=29-	=29-	=29-	=29-	=29-	=29-	=29-	=29-	=29-	=29-	=29-	=29-	=29-	=29-	=29-
0r	.	1G	fu-	0r	.	.	.	0r	.	.	.	0r	.	1dd	fu-
.	.	.	.	.	.	2B-/	fu-	.	.	2g\	fu-	.	.	.	.
.	.	1C	-e-	.	.	1e-X	-e-	.	.	1g	-e-	.	.	1cc	-e-
*	*	*	*	*custos:f#	*	*	*	*	*	*custos:f#	*	*	*	*	*
!	!	!	!	!LO:LB:g=original	!	!	!	!	!	!LO:LB:g=original	!	!	!	!	!
=30-	=30-	=30-	=30-	=30-	=30-	=30-	=30-	=30-	=30-	=30-	=30-	=30-	=30-	=30-	=30-
2r	.	1D	-runt	2r	.	1d	-runt	2r	.	1f#X	-runt	2r	.	1a	-runt
*	*ij	*	*	*	*	*	*	*	*	*	*	*	*ij	*	*
1d	La-	.	.	2.f#X\	La-	.	.	2.a\	La-	.	.	1dd	La-	.	.
.	.	1r	.	.	.	1r	.	.	.	1r	.	.	.	1r	.
.	.	.	.	4g\	pi-	.	.	4b-\	pi-	.	.	.	.	.	.
*	*	*	*	*	*	*	*	*custos:cc	*	*	*	*	*	*	*
!	!	!	!	!	!	!	!	!LO:LB:g=original	!	!	!	!	!	!	!
2A/	pi-	.	.	2a\	-des	.	.	1cc\	-des	.	.	2ff\	-pi-	.	.
=31-	=31-	=31-	=31-	=31-	=31-	=31-	=31-	=31-	=31-	=31-	=31-	=31-	=31-	=31-	=31-
2c\	-des	0r	.	2g\	tor-	0r	.	.	.	0r	.	2ee\	-des	0r	.
2d\	tor-	.	.	1fny	-ren-	.	.	1a	-tor-	.	.	2ff\	tor-	.	.
*custos:B-	*	*	*	*	*	*	*	*	*	*	*	*	*	*	*
!LO:LB:g=original	!	!	!	!	!	!	!	!	!	!	!	!	!	!	!
1B-	-ren-	.	.	.	.	.	.	.	.	.	.	1.dd	-ren-	.	.
.	.	.	.	4e\	.	.	.	2g\	-ren-	.	.	.	.	.	.
.	.	.	.	4d\	.	.	.	.	.	.	.	.	.	.	.
=32-	=32-	=32-	=32-	=32-	=32-	=32-	=32-	=32-	=32-	=32-	=32-	=32-	=32-	=32-	=32-
1A	-tis	2r	.	2f\	.	2r	.	1b-	-tis	2r	.	.	.	2r	.
.	.	2.A/	il-	2e\	-tis	2.c#X/	il-	.	.	2.e/	il-	2cc#X\	-tis	2.a/	il-
1r	.	.	.	1r	.	.	.	1r	.	.	.	1r	.	.	.
.	.	4A/	-li	.	.	4c#/	-li	.	.	4e/	-li	.	.	4a/	-li
.	.	2A/	dul-	.	.	2c#/	dul-	.	.	2f#X\	dul-	.	.	2a/	dul-
*	*Xij	*	*	*	*	*custos:d	*	*	*	*	*	*	*Xij	*	*
*	*	*	*	*	*	*	*	*	*	*	*	*	*	*	*
!	!	!	!	!	!	!LO:LB:g=original	!	!	!	!	!	!	!	!	!
=33-	=33-	=33-	=33-	=33-	=33-	=33-	=33-	=33-	=33-	=33-	=33-	=33-	=33-	=33-	=33-
!	!	!	!	!	!	!	!	!	!	!	!	!	!	!LO:N:acc=#	!
0r	.	2G/	-ces	0r	.	2d\	-ces	0r	.	2g\	-ces	0r	.	2bn/	-ces
.	.	2Eny/	fu-	.	.	2eny\	fu-	.	.	1g	fu-	.	.	2cc\	fu-
.	.	1F	-e-	.	.	1cny	-e-	.	.	.	.	.	.	1a	-e-
.	.	.	.	.	.	.	.	.	.	1fny\	-e-	.	.	.	.
=34-	=34-	=34-	=34-	=34-	=34-	=34-	=34-	=34-	=34-	=34-	=34-	=34-	=34-	=34-	=34-
2r	.	1C	-runt	2r	.	1c	-runt	2r	.	.	.	2r	.	1g	-runt
2c\	ip-	.	.	2g\	ip-	.	.	2cc\	ip-	2e/	-runt	2gg\	ip-	.	.
*	*	*custos:c	*	*	*	*	*	*	*	*	*	*custos:ff	*	*	*
!	!	!LO:LB:g=original	!	!	!	!	!	!	!	!	!	!LO:LB:g=original	!	!	!
4A/	-ſum	2r	.	4a\	-ſum	2r	.	4cc\	-ſum	2r	.	4ff\	-ſum	2r	.
4F/	ſe-	.	.	4a\	ſe-	.	.	4cc\	ſe-	.	.	4ff\	ſe-	.	.
2C/	-quun-	2c\	ip-	2g\	-quun-	2a\	ip-	2.cc\	-quun-	2cc\	ip-	2ee\	-quun-	2gg\	ip-
*	*	*	*	*	*	*	*	*	*	*	*	*	*	*custos:ff	*
!	!	!	!	!	!	!	!	!	!	!	!	!	!	!LO:LB:g=original	!
=35-	=35-	=35-	=35-	=35-	=35-	=35-	=35-	=35-	=35-	=35-	=35-	=35-	=35-	=35-	=35-
2F/	-tur	4A/	-ſum	2cny/	-tur	4a\	-ſum	.	.	4cc\	-ſum	2ccny\	-tur	4ffny\	-ſum
.	.	4F/	ſe-	.	.	4a\	ſe-	4a\	-tur	4cc\	ſe-	.	.	4ff\	ſe-
4r	.	2C/	-quun-	4r	.	2g\	-quun-	4r	.	2.cc\	-quun-	4r	.	2eeny\	-quun-
*	*ij	*	*	*	*ij	*	*	*	*ij	*	*	*	*ij	*	*
4c\	ip-	.	.	4c/	ip-	.	.	4g\	ip-	.	.	4gg\	ip-	.	.
4A/	-ſum	2F/	-tur	4c/	-ſum	2c/	-tur	4a\	-ſum	.	.	4ff\	-ſum	2cc\	-tur
4F/	ſe-	.	.	4c/	ſe-	.	.	4a\	ſe-	4a\	-tur	4ff\	ſe-	.	.
2C/	-quun-	2c\	om-	2c/	-quun-	1c\	om-	2g\	-quun-	2e/	om-	2ee\	-quun-	1cc\	om-
=36-	=36-	=36-	=36-	=36-	=36-	=36-	=36-	=36-	=36-	=36-	=36-	=36-	=36-	=36-	=36-
2F/	-tur	2A/	-nes	2c/	-tur	.	.	2fny\	-tur	2a\	-nes	2ff\	-tur	.	.
*	*Xij	*	*	*	*Xij	*	*	*	*Xij	*	*	*	*Xij	*	*
1F	om-	1F	a-	1c	om-	2A/	-nes	1a	om-	1a	a-	1cc	om-	2cc\	-nes
.	.	.	.	.	.	1.c	a-	.	.	.	.	.	.	2.ff\	a-
2F/	-nes	2F/	-ni-	2A/	-nes	.	.	2f\	-nes	2a\	-ni-	2cc\	-nes	.	.
.	.	.	.	.	.	.	.	.	.	.	.	.	.	4ff\	-ni-
*	*	*	*	*custos:G	*	*	*	*	*	*	*	*	*	*	*
!	!	!	!	!LO:LB:g=original	!	!	!	!	!	!	!	!	!	!	!
=37-	=37-	=37-	=37-	=37-	=37-	=37-	=37-	=37-	=37-	=37-	=37-	=37-	=37-	=37-	=37-
1.C	a-	0c	-mę	1.G	a-	.	.	0g	a-	2.cc\	-mę	1.cc	a-	0ee	-mę
.	.	.	.	.	.	2c/	-ni-	.	.	.	.	.	.	.	.
.	.	.	.	.	.	.	.	.	.	8b-\	.	.	.	.	.
.	.	.	.	.	.	.	.	.	.	8a\	.	.	.	.	.
.	.	.	.	.	.	1c	-mę	.	.	2.g\	.	.	.	.	.
2C/	-ni-	.	.	2G/	-ni-	.	.	.	.	.	.	2cc\	-ni-	.	.
.	.	.	.	.	.	.	.	.	.	4a\	.	.	.	.	.
*	*	*	*	*	*	*	*	*	*	*custos:b-	*	*	*	*	*
!	!	!	!	!	!	!	!	!	!	!LO:LB:g=original	!	!	!	!	!
=38-	=38-	=38-	=38-	=38-	=38-	=38-	=38-	=38-	=38-	=38-	=38-	=38-	=38-	=38-	=38-
1G	-mae	4G/	-iu-	1G	-mae	0d	iuſ-	2g\	-ni-	1b-	.	2b-/	-mę	0dd	iuſ-
.	.	4A/	.	.	.	.	.	.	.	.	.	.	.	.	.
.	.	4B-\	.	.	.	.	.	1g	-mę	.	.	2.dd\	iu-	.	.
.	.	4c\	.	.	.	.	.	.	.	.	.	.	.	.	.
1D	iuſ-	1d	.	1A	iuſ-	.	.	.	.	2a\	.	.	.	.	.
.	.	.	.	.	.	.	.	.	.	.	.	8cc\	.	.	.
.	.	.	.	.	.	.	.	.	.	.	.	8b-\	.	.	.
.	.	.	.	.	.	.	.	2f#X\	iu-	2d/	iu-	2a/	.	.	.
=39-	=39-	=39-	=39-	=39-	=39-	=39-	=39-	=39-	=39-	=39-	=39-	=39-	=39-	=39-	=39-
!	!	!	!	!	!	!LO:N:acc=#	!	!	!	!	!	!LO:N:acc=#	!	!	!
1G	-tæ	0G	-ſtæ	1G	-tæ	0Bn	-tæ	1g	-ſtæ	0d	-ſtæ	1bn	-ſtæ	0dd	-tæ
2r	.	.	.	2r	.	.	.	2r	.	.	.	2r	.	.	.
!	!	!	!	!LO:N:acc=#	!	!	!	!	!	!	!	!	!	!	!
2G/	Ad	.	.	2Bn/	Ad	.	.	2d/	Ad	.	.	2g/	Ad	.	.
=40-	=40-	=40-	=40-	=40-	=40-	=40-	=40-	=40-	=40-	=40-	=40-	=40-	=40-	=40-	=40-
1G	hę-	00r	.	1Bny	hae-	00r	.	1d	hę-	00r	.	1g	hę-	00r	.
*	*	*	*	*	*	*	*	*custos:e	*	*	*	*	*	*	*
!	!	!	!	!	!	!	!	!LO:LB:g=original	!	!	!	!	!	!	!
1C	-ſit	.	.	1c	-ſit	.	.	1e	-ſit	.	.	1g	-ſit	.	.
*custos:F	*	*	*	*	*	*	*	*	*	*	*	*	*	*	*
!LO:LB:g=original	!	!	!	!	!	!	!	!	!	!	!	!	!	!	!
=41-	=41-	=41-	=41-	=41-	=41-	=41-	=41-	=41-	=41-	=41-	=41-	=41-	=41-	=41-	=41-
1.F	a-	.	.	1.c	a-	.	.	1.fny	a-	.	.	1.a	a-	.	.
2F/	-ni-	.	.	2c/	-ni-	.	.	2f\	-ni-	.	.	2a/	-ni-	.	.
*	*	*	*	*	*	*	*	*	*	*	*	*custos:a	*	*	*
!	!	!	!	!	!	!	!	!	!	!	!	!LO:LB:g=original	!	!	!
=42-	=42-	=42-	=42-	=42-	=42-	=42-	=42-	=42-	=42-	=42-	=42-	=42-	=42-	=42-	=42-
1F	-mae	00r	.	1c	-mae	00r	.	1f	-ma	00r	.	1a	-ma	00r	.
1D	me-	.	.	1d	me-	.	.	1.f	me-	.	.	2b-y/	me-	.	.
.	.	.	.	.	.	.	.	.	.	.	.	1a/	-a	.	.
=43-	=43-	=43-	=43-	=43-	=43-	=43-	=43-	=43-	=43-	=43-	=43-	=43-	=43-	=43-	=43-
2D/	-a	.	.	2d\	-a	.	.	.	-a	.	.	.	.	.	.
2.d\	poſt	.	.	2G/	poſt	.	.	2g\	poſt	.	.	2b-/	poſt	.	.
.	.	.	.	1A	te	.	.	1e	te	.	.	0.a	te	.	.
8c#X\	.	.	.	.	.	.	.	.	.	.	.	.	.	.	.
!LO:N:acc=#	!	!	!	!	!	!	!	!	!	!	!	!	!	!	!
8Bn\	.	.	.	.	.	.	.	.	.	.	.	.	.	.	.
2c#X\	.	.	.	.	.	.	.	.	.	.	.	.	.	.	.
=44-	=44-	=44-	=44-	=44-	=44-	=44-	=44-	=44-	=44-	=44-	=44-	=44-	=44-	=44-	=44-
0d	te	2r	.	00r	.	2r	.	0f#X	te	2r	.	.	.	2r	.
.	.	1D	qu-	.	.	1d	qu-	.	.	1f#X	qu-	.	.	1a	qu-
.	.	2D/	-ia	.	.	2d\	-ia	.	.	2f#\	-ia	.	.	2a/	-ia
=45-	=45-	=45-	=45-	=45-	=45-	=45-	=45-	=45-	=45-	=45-	=45-	=45-	=45-	=45-	=45-
00r	.	4G/	ca-	.	.	4d\	ca-	00r	.	2g\	ca-	00r	.	2b-y/	ca-
.	.	4A/	.	.	.	4c\	.	.	.	.	.	.	.	.	.
.	.	4B-\	.	.	.	4B-y/	.	.	.	4G/	-ro	.	.	1g	-ro
.	.	4c\	.	.	.	4A/	.	.	.	4A/	.	.	.	.	.
*	*	*	*	*	*	*custos:G	*	*	*	*	*	*	*	*	*
!	!	!	!	!	!	!LO:LB:g=original	!	!	!	!	!	!	!	!	!
.	.	2d\	.	.	.	2G/	.	.	.	4B-/	.	.	.	.	.
.	.	.	.	.	.	.	.	.	.	4c/	.	.	.	.	.
.	.	2D/	ro	.	.	2A/	ro	.	.	1d/	.	.	.	2f#X/	.
*	*	*custos:G	*	*	*	*	*	*	*	*	*	*	*	*	*
!	!	!LO:LB:g=original	!	!	!	!	!	!	!	!	!	!	!	!	!
=46-	=46-	=46-	=46-	=46-	=46-	=46-	=46-	=46-	=46-	=46-	=46-	=46-	=46-	=46-	=46-
!	!	!	!	!	!	!LO:N:acc=#	!	!	!	!	!	!	!	!	!
.	.	1G	me-	0r	.	1Bn	me-	.	.	.	.	.	.	1g	me-
.	.	.	.	.	.	.	.	.	.	2e/	me-	.	.	.	.
.	.	1F	-a	.	.	1c	-a	.	.	1fny	-a	.	.	1a	-a
=47-	=47-	=47-	=47-	=47-	=47-	=47-	=47-	=47-	=47-	=47-	=47-	=47-	=47-	=47-	=47-
4F/	la-	1r	.	4a\	la-	1r	.	4cc\	la-	1r	.	4a/	la-	1r	.
4G/	-pi-	.	.	4g\	-pi-	.	.	4b-\	-pi-	.	.	4b-/	-pi-	.	.
4A/	-da-	.	.	4f\	-da-	.	.	4a\	-da-	.	.	4cc\	-da-	.	.
4F/	-ta	.	.	4f\	-ta	.	.	4a\	-ta	.	.	4cc\	-ta	.	.
1B-y	eſt	4BB-/	la-	1f	eſt	4d\	la-	1b-	eſt	4d/	la-	1dd	eſt	4ff\	la-
.	.	4C/	-pi-	.	.	4c/	-pi-	.	.	4e/	-pi-	.	.	4ee\	-pi-
.	.	4D/	-da-	.	.	4B-y/	-da-	.	.	4f\	-da-	.	.	4dd\	-da-
.	.	4BB-/	-ta	.	.	4B-/	-ta	.	.	4d/	-ta	.	.	4dd\	-ta
=48-	=48-	=48-	=48-	=48-	=48-	=48-	=48-	=48-	=48-	=48-	=48-	=48-	=48-	=48-	=48-
*	*ij	*	*	*	*ij	*	*	*	*ij	*	*	*	*ij	*	*
4F/	la-	1F	eſt	4a\	la-	1A	eſt	4cc\	la-	1f	eſt	4a/	la-	1cc	eſt
4G/	-pi-	.	.	4g\	-pi-	.	.	4b-\	-pi-	.	.	4b-/	-pi-	.	.
4A/	-da-	.	.	4f\	-da-	.	.	4a\	-da-	.	.	4cc\	-da-	.	.
4G/	-ta	.	.	4f\	-ta	.	.	4a\	-ta	.	.	4cc\	-ta	.	.
*	*	*	*ij	*custos:e	*	*	*ij	*	*	*	*ij	*	*	*custos:ee	*ij
!	!	!	!	!LO:LB:g=original	!	!	!	!	!	!	!	!	!	!LO:LB:g=original	!
1cny	eſt	4C/	la-	1e	eſt	2r	.	1g	eſt	4g\	la-	1cc	eſt	4ee\	la-
.	.	4D/	-pi-	.	.	.	.	.	.	4f\	-pi-	.	.	4ff\	-pi-
.	.	4E/	-da-	.	.	4G/	la-	.	.	4e/	-da-	.	.	4gg\	-da-
.	.	4C/	-ta	.	.	4A/	-pi-	.	.	4e/	-ta	.	.	4ee\	-ta
*	*Xij	*	*	*	*Xij	*	*	*	*Xij	*custos:g	*	*	*Xij	*	*
!	!	!	!	!	!	!	!	!	!	!LO:LB:g=original	!	!	!	!	!
=49-	=49-	=49-	=49-	=49-	=49-	=49-	=49-	=49-	=49-	=49-	=49-	=49-	=49-	=49-	=49-
2r	.	2G/	eſt	2r	.	4B-/	-da-	2r	.	2g\	eſt	2r	.	2dd\	eſt
.	.	.	.	.	.	4G/	-ta	.	.	.	.	.	.	.	.
!	!	!	!	!	!	!	!	!	!	!	!	!LO:N:acc=#	!	!	!
*	*	*	*Xij	*	*	*	*	*	*	*	*Xij	*	*	*	*Xij
1G	pro	1G	pro	1d	pro	2d\	eſt	1g	pro	1g	pro	1bn	pro	1dd	pro
.	.	.	.	.	.	2r	.	.	.	.	.	.	.	.	.
*	*	*	*	*	*	*	*Xij	*	*	*	*	*	*	*	*
2G/	te	2G/	te	1G/	te	1g\	pro	2g\	te	2d/	te	2b/	te	2dd\	te
*custos:C	*	*	*	*	*	*	*	*	*	*	*	*	*	*	*
!LO:LB:g=original	!	!	!	!	!	!	!	!	!	!	!	!	!	!	!
=50-	=50-	=50-	=50-	=50-	=50-	=50-	=50-	=50-	=50-	=50-	=50-	=50-	=50-	=50-	=50-
1C	De-	1c	De-	.	.	.	.	1g	De-	2r	.	1cc	De-	1ee	De-
.	.	.	.	1c	De-	2e\	te	.	.	1g	De-	.	.	.	.
1G	-us	1G	-us	.	.	2d\	De-	1g	-us	.	.	1dd	-us	2gg\	-us
.	.	.	.	2B-y/	-us	2d\	-us	.	.	2.d/	-us	.	.	1gg\	me-
=51-	=51-	=51-	=51-	=51-	=51-	=51-	=51-	=51-	=51-	=51-	=51-	=51-	=51-	=51-	=51-
0D	me-	0d	me-	0A	me-	0d	me-	0a	me-	.	.	0dd	me-	.	.
.	.	.	.	.	.	.	.	.	.	4e/	.	.	.	.	.
.	.	.	.	.	.	.	.	.	.	4f#X\	.	.	.	4ff#X\	.
.	.	.	.	.	.	.	.	.	.	4g\	.	.	.	4ee\	.
.	.	.	.	.	.	.	.	.	.	2a\	.	.	.	1ff#X	.
.	.	.	.	.	.	.	.	.	.	2d/	me-	.	.	.	.
=52-	=52-	=52-	=52-	=52-	=52-	=52-	=52-	=52-	=52-	=52-	=52-	=52-	=52-	=52-	=52-
!	!	!	!	!	!	!LO:N:acc=#	!	!LO:N:acc=#	!	!	!	!	!	!	!
0G	-us	1G	-us	0G	-us	1Bn	-us	0bn	-us	1d	-us	0dd	-us	1gg	-us
.	.	2r	.	.	.	2r	.	.	.	2r	.	.	.	2r	.
.	.	2G/	Ad-	.	.	2B/	Ad-	.	.	2d/	Ad-	.	.	2g/	Ad-
*	*	*	*	*	*	*custos:d	*	*	*	*	*	*	*	*	*
!	!	!	!	!	!	!LO:LB:g=original	!	!	!	!	!	!	!	!	!
=53-	=53-	=53-	=53-	=53-	=53-	=53-	=53-	=53-	=53-	=53-	=53-	=53-	=53-	=53-	=53-
!	!	!	!	!	!	!	!	!	!	!	!	!	!	!LO:N:acc=#	!
1r	.	1G	-hę-	1r	.	2d\	-hę-	1r	.	1g	-hę-	1r	.	1bn	-hę-
.	.	.	.	.	.	1G	-ſit	.	.	.	.	.	.	.	.
*	*	*	*	*	*	*	*ij	*custos:g	*	*	*	*custos:cc	*	*	*
!	!	!	!	!	!	!	!	!LO:LB:g=original	!	!	!	!LO:LB:g=original	!	!	!
2r	.	0C	-ſit	2r	.	.	.	2r	.	0e	-ſit	2r	.	0cc	-ſit
2c\	Ad-	.	.	2c/	Ad-	2g\	Ad-	2g\	Ad	.	.	2cc\	Ad	.	.
=54-	=54-	=54-	=54-	=54-	=54-	=54-	=54-	=54-	=54-	=54-	=54-	=54-	=54-	=54-	=54-
1c	-hę-	.	.	1e	-hę-	2g\	-hę-	1g	hę-	.	.	1cc	hę-	.	.
.	.	.	.	.	.	2c/	-ſit	.	.	.	.	.	.	.	.
0F	-ſit	2r	.	0f	-ſit	2r	.	0a	-ſit	2r	.	0cc	-ſit	2r	.
*	*	*	*	*	*	*	*Xij	*	*	*	*	*	*	*	*
.	.	2.F/	a-	.	.	2.c/	a-	.	.	2.fny\	a-	.	.	2.a/	a-
=55-	=55-	=55-	=55-	=55-	=55-	=55-	=55-	=55-	=55-	=55-	=55-	=55-	=55-	=55-	=55-
.	.	4F/	-ni-	.	.	4c/	-ni-	.	.	4f\	-ni-	.	.	4a/	-ni-
.	.	2F/	-ma	.	.	2c/	-ma	.	.	2f\	-ma	.	.	2a/	-ma
*	*	*custos:D	*	*	*	*	*	*	*	*	*	*	*	*	*
!LO:TX:t=P:problem: Verovio nie wyświetla pauzy	!	!LO:LB:g=original	!	!LO:TX:t=P:problem: Verovio nie wyświetla pauzy	!	!	!	!	!	!	!	!	!	!	!
1r	.	1D	me-	1r	.	1d	me-	1r	.	1.f	me-	1r	.	2b-y/	me-
.	.	.	.	.	.	.	.	.	.	.	.	.	.	1a/	-a
=56-	=56-	=56-	=56-	=56-	=56-	=56-	=56-	=56-	=56-	=56-	=56-	=56-	=56-	=56-	=56-
0r	.	2D/	-a	0r	.	2d\	-a	0r	.	.	.	0r	.	.	.
.	.	2.d\	poſt	.	.	2G/	poſt	.	.	2g\	-a	.	.	2b-/	poſt
.	.	.	.	.	.	1A	te	.	.	1e	poſt	.	.	0.a	te
.	.	8c#X\	.	.	.	.	.	.	.	.	.	.	.	.	.
!	!	!LO:N:acc=#	!	!	!	!	!	!	!	!	!	!	!	!	!
.	.	8Bn\	.	.	.	.	.	.	.	.	.	.	.	.	.
.	.	2c#X\	.	.	.	.	.	.	.	.	.	.	.	.	.
=57-	=57-	=57-	=57-	=57-	=57-	=57-	=57-	=57-	=57-	=57-	=57-	=57-	=57-	=57-	=57-
2r	.	0d	te	2r	.	00r	.	2r	.	0f#X	te	2r	.	.	.
1D	qu-	.	.	1d	qu-	.	.	1f#X	qu-	.	.	1a	qu-	.	.
2D/	-ia	.	.	2d\	-ia	.	.	2f#\	-ia	.	.	2a/	-ia	.	.
*	*	*	*	*	*	*	*	*	*	*	*	*	*	*custos:a	*
!	!	!	!	!	!	!	!	!	!	!	!	!	!	!LO:LB:g=original	!
=58-	=58-	=58-	=58-	=58-	=58-	=58-	=58-	=58-	=58-	=58-	=58-	=58-	=58-	=58-	=58-
4G/	ca-	00r	.	4d\	ca-	.	.	2g\	ca-	00r	.	2b-y/	ca-	00r	.
4A/	.	.	.	4c/	.	.	.	.	.	.	.	.	.	.	.
4B-\	.	.	.	4B-/	.	.	.	4G/	ro	.	.	2.g/	.	.	.
4c\	.	.	.	4A/	.	.	.	4A/	.	.	.	.	.	.	.
2c\	.	.	.	2G/	.	.	.	4B-/	.	.	.	.	.	.	.
.	.	.	.	.	.	.	.	4c/	.	.	.	8f/	.	.	.
.	.	.	.	.	.	.	.	.	.	.	.	8e/	.	.	.
2D/	ro	.	.	2A/	ro	.	.	2d/	.	.	.	2f#X/	ro	.	.
=59-	=59-	=59-	=59-	=59-	=59-	=59-	=59-	=59-	=59-	=59-	=59-	=59-	=59-	=59-	=59-
x1G	me-	.	.	1B-	me-	0r	.	2d/	me-	.	.	1g	me-	.	.
.	.	.	.	.	.	.	.	2e/	.	.	.	.	.	.	.
1F	-a	.	.	1c	-a	.	.	1fny	-a	.	.	1a	-a	.	.
*	*	*	*	*	*	*	*	*	*	*custos:cc	*	*	*	*	*
!	!	!	!	!	!	!	!	!	!	!LO:LB:g=original	!	!	!	!	!
=60-	=60-	=60-	=60-	=60-	=60-	=60-	=60-	=60-	=60-	=60-	=60-	=60-	=60-	=60-	=60-
1r	.	4F/	la-	1r	.	4a\	la-	1r	.	4cc\	la-	1r	.	4a/	la-
.	.	4G/	-pi-	.	.	4g\	-pi-	.	.	4b-\	-pi-	.	.	4b-/	-pi-
.	.	4A/	-da-	.	.	4f\	-da-	.	.	4a\	-da-	.	.	4cc\	-da-
.	.	4F/	-ta	.	.	4f\	-ta	.	.	4a\	-ta	.	.	4cc\	-ta
*	*	*	*	*custos:d	*	*	*	*	*	*	*	*	*	*	*
!	!	!	!	!LO:LB:g=original	!	!	!	!	!	!	!	!	!	!	!
4BB-/	la-	1B-y	eſt	4d\	la-	1f	eſt	4d/	la-	1b-	eſt	4ff\	-la-	1dd	eſt
4C/	-pi-	.	.	4c/	-pi-	.	.	4e/	-pi-	.	.	4ee\	-pi-	.	.
4D/	-da-	.	.	4B-/	-da-	.	.	4f\	-da-	.	.	4dd\	-da-	.	.
4BB-/	-ta	.	.	4B-/	-ta	.	.	4d/	-ta	.	.	4dd\	-ta	.	.
*custos:F	*	*	*ij	*	*	*	*ij	*	*	*	*ij	*	*	*	*ij
!LO:LB:g=original	!	!	!	!	!	!	!	!	!	!	!	!	!	!	!
=61-	=61-	=61-	=61-	=61-	=61-	=61-	=61-	=61-	=61-	=61-	=61-	=61-	=61-	=61-	=61-
1F	eſt	4F/	la-	1A	eſt	4a\	la-	1f	eſt	4cc\	la-	1cc	eſt	4a/	la-
.	.	4G/	-pi-	.	.	4g\	-pi-	.	.	4b-\	-pi-	.	.	4b-/	-pi-
.	.	4A/	-da-	.	.	4f\	-da-	.	.	4a\	-da-	.	.	4cc\	-da-
.	.	4F/	-ta	.	.	4f\	-ta	.	.	4a\	-ta	.	.	4cc\	-ta
*	*ij	*	*	*	*ij	*	*	*	*ij	*	*	*	*ij	*	*
4C/	la-	1cny	eſt	2r	.	1e	eſt	4g\	la-	1g	eſt	4ee\	la-	1cc	eſt
4D/	-pi-	.	.	.	.	.	.	4f\	-pi-	.	.	4ff\	-pi-	.	.
4E/	-da-	.	.	4G/	la-	.	.	4e/	-da-	.	.	4gg\	-da-	.	.
4C/	-ta	.	.	4A/	-pi-	.	.	4e/	-ta	.	.	4ee\	-ta	.	.
*	*	*	*Xij	*	*	*custos:d	*Xij	*custos:g	*	*	*Xij	*custos:dd	*	*	*Xij
!	!	!	!	!	!	!LO:LB:g=original	!	!LO:LB:g=original	!	!	!	!LO:LB:g=original	!	!	!
=62-	=62-	=62-	=62-	=62-	=62-	=62-	=62-	=62-	=62-	=62-	=62-	=62-	=62-	=62-	=62-
2G/	eſt	2r	.	4B-/	-da-	2r	.	2g\	eſt	2r	.	2dd\	eſt	2r	.
.	.	.	.	4A/	-ta	.	.	.	.	.	.	.	.	.	.
*	*Xij	*	*	*	*	*	*	*	*Xij	*	*	*	*Xij	*	*
!	!	!	!	!	!	!	!	!	!	!	!	!	!	!LO:N:acc=#	!
1G	pro	1G	pro	2d\	eſt	1d	pro	1g	pro	1g	pro	1dd	pro	1bn	pro
.	.	.	.	2r	.	.	.	.	.	.	.	.	.	.	.
*	*	*	*	*	*Xij	*	*	*	*	*	*	*	*	*	*
2G/	te	2G/	te	1g\	pro	1G/	te	2d/	te	2g\	te	2dd\	te	2b/	te
=63-	=63-	=63-	=63-	=63-	=63-	=63-	=63-	=63-	=63-	=63-	=63-	=63-	=63-	=63-	=63-
1c	De-	1C	De-	.	.	.	.	2r	.	1g	De-	1ee	De-	1cc	De-
.	.	.	.	2e\	te	1c	De-	1g	De-	.	.	.	.	.	.
1G	-us	1G	-us	2d\	De-	.	.	.	.	1g	-us	2gg\	-us	1dd	-us
.	.	.	.	2d\	-us	2B-y/	-us	2.d/	-us	.	.	1gg\	me-	.	.
=64-	=64-	=64-	=64-	=64-	=64-	=64-	=64-	=64-	=64-	=64-	=64-	=64-	=64-	=64-	=64-
0d	me-	0D	me-	0d	me-	0A	me-	.	.	0a	me-	.	.	0dd	me-
.	.	.	.	.	.	.	.	4e/	.	.	.	.	.	.	.
.	.	.	.	.	.	.	.	4f#X\	.	.	.	4ff#X\	.	.	.
.	.	.	.	.	.	.	.	4g\	.	.	.	4ee\	.	.	.
.	.	.	.	.	.	.	.	2a\	.	.	.	1ff#X	.	.	.
.	.	.	.	.	.	.	.	2d/	me-	.	.	.	.	.	.
=65-	=65-	=65-	=65-	=65-	=65-	=65-	=65-	=65-	=65-	=65-	=65-	=65-	=65-	=65-	=65-
!	!	!	!	!LO:N:acc=#	!	!	!	!	!	!LO:N:acc=#	!	!	!	!	!
00G	-us.	00G	-us.	00Bn	-us	00G	-us.	00d	-us.	00bn	-us.	00gg	-us.	00dd	-us.
==	==	==	==	==	==	==	==	==	==	==	==	==	==	==	==
*-	*-	*-	*-	*-	*-	*-	*-	*-	*-	*-	*-	*-	*-	*-	*-
!!!system-decoration: [(s1,s2,s3,s4,s5,s6,s7,s8)]
!!!ENC: Filip Voros
!!!END: 2022-07-17
!!!ENC: Natalia Wrzos
!!!END: 2022-08-12
!!!YEC: Copyright 2022 Narodowy Instytut Fryderyka Chopina (https://polishscores.org)
!!!YEM: License CC-BY-4.0 (https://creativecommons.org/licenses/by/4.0)
